<?xml version="1.0" encoding="UTF-8"?>
<map version="1.10" tiledversion="1.11.2" orientation="orthogonal" renderorder="right-down" width="15" height="10" tilewidth="32" tileheight="32" infinite="0" nextlayerid="5" nextobjectid="124">
 <tileset firstgid="1" source="Main_Spritesheet.tsx"/>
 <tileset firstgid="257" source="Player.tsx"/>
 <layer id="1" name="floor" width="15" height="10">
  <data encoding="csv">
0,18,18,18,18,18,18,18,18,18,18,18,18,18,0,
0,18,18,18,18,18,18,18,18,18,18,18,18,18,0,
0,18,18,18,18,18,18,18,18,18,18,18,18,18,0,
0,18,18,18,18,18,18,18,18,18,18,18,18,18,0,
0,18,18,18,18,18,18,18,18,18,18,18,18,18,0,
0,18,18,18,18,18,18,18,18,18,18,18,18,18,0,
0,18,18,18,18,18,18,18,18,18,18,18,18,18,0,
0,18,18,18,18,18,18,18,18,18,18,18,18,18,0,
0,18,18,18,18,18,18,18,18,18,18,18,18,18,0,
0,18,18,18,18,18,18,18,18,18,18,18,18,18,0
</data>
 </layer>
 <layer id="2" name="wall" width="15" height="10">
  <data encoding="csv">
3221225493,2147483658,7,7,7,7,7,7,7,7,7,7,7,10,1073741845,
2147483653,2147483674,23,23,23,23,23,23,23,23,23,23,23,26,5,
2147483653,2147483690,0,0,0,0,0,0,0,0,0,0,0,42,5,
2147483653,0,0,0,0,0,0,0,0,0,0,0,0,0,5,
2147483653,0,0,0,0,0,0,0,0,0,0,0,0,0,5,
2147483653,0,0,0,0,0,0,0,0,0,0,0,0,0,5,
2147483653,0,0,0,0,0,0,0,0,0,0,0,0,0,5,
2147483653,0,0,0,0,0,0,0,0,0,0,0,0,0,5,
2147483653,0,0,0,0,0,0,0,0,0,0,0,0,0,5,
2147483669,0,0,0,0,0,0,0,0,0,0,0,0,0,21
</data>
 </layer>
 <objectgroup id="3" name="objects">
  <object id="15" gid="49" x="416" y="248" width="32" height="32"/>
  <object id="16" gid="65" x="416" y="232" width="32" height="32"/>
  <object id="18" gid="49" x="416" y="216" width="32" height="32"/>
  <object id="19" gid="65" x="416" y="168" width="32" height="32"/>
  <object id="20" gid="49" x="416" y="192" width="32" height="32"/>
  <object id="21" gid="49" x="416" y="152" width="32" height="32"/>
  <object id="22" gid="66" x="360" y="80" width="32" height="32"/>
  <object id="24" gid="50" x="376" y="88" width="32" height="32"/>
  <object id="25" gid="50" x="344" y="88" width="32" height="32"/>
  <object id="26" gid="50" x="344" y="88" width="32" height="32"/>
  <object id="27" gid="66" x="296" y="80" width="32" height="32"/>
  <object id="28" gid="50" x="312" y="88" width="32" height="32"/>
  <object id="29" gid="50" x="280" y="88" width="32" height="32"/>
  <object id="33" gid="66" x="232" y="80" width="32" height="32"/>
  <object id="36" gid="66" x="232" y="80" width="32" height="32"/>
  <object id="34" gid="50" x="248" y="88" width="32" height="32"/>
  <object id="37" gid="50" x="248" y="88" width="32" height="32"/>
  <object id="35" gid="50" x="216" y="88" width="32" height="32"/>
  <object id="38" gid="50" x="216" y="88" width="32" height="32"/>
  <object id="39" gid="70" x="40" y="80" width="32" height="32"/>
  <object id="40" gid="71" x="24" y="96" width="32" height="32"/>
  <object id="41" gid="39" x="72" y="56" width="32" height="32"/>
  <object id="42" gid="37" x="160" y="56" width="32" height="32"/>
  <object id="43" gid="38" x="128" y="56" width="32" height="32"/>
  <object id="45" gid="40" x="104" y="56" width="32" height="32"/>
  <object id="47" gid="111" x="32" y="128" width="32" height="32"/>
  <object id="49" gid="111" x="64" y="128" width="32" height="32"/>
  <object id="50" gid="111" x="96" y="128" width="32" height="32"/>
  <object id="51" gid="2147483758" x="128" y="128" width="32" height="32"/>
  <object id="52" gid="2147483742" x="128" y="96" width="32" height="32"/>
  <object id="53" gid="63" x="96" y="256" width="32" height="32"/>
  <object id="54" gid="63" x="128" y="256" width="32" height="32"/>
  <object id="55" gid="63" x="160" y="256" width="32" height="32"/>
  <object id="56" gid="64" x="192" y="256" width="32" height="32"/>
  <object id="57" gid="48" x="192" y="224" width="32" height="32"/>
  <object id="58" gid="32" x="192" y="192" width="32" height="32"/>
  <object id="60" gid="31" x="160" y="192" width="32" height="32"/>
  <object id="62" gid="31" x="128" y="192" width="32" height="32"/>
  <object id="63" gid="31" x="96" y="192" width="32" height="32"/>
  <object id="64" gid="30" x="64" y="192" width="32" height="32"/>
  <object id="65" gid="62" x="64" y="256" width="32" height="32"/>
  <object id="66" gid="46" x="64" y="224" width="32" height="32"/>
  <object id="67" gid="257" x="264" y="176" width="32" height="32">
   <properties>
    <property name="controller" type="bool" value="true"/>
   </properties>
  </object>
  <object id="74" gid="72" x="40" y="320" width="32" height="32"/>
  <object id="76" gid="72" x="24" y="304" width="32" height="32"/>
  <object id="77" gid="72" x="424" y="304" width="32" height="32"/>
  <object id="78" gid="72" x="408" y="320" width="32" height="32"/>
  <object id="79" gid="72" x="408" y="80" width="32" height="32"/>
  <object id="80" gid="72" x="424" y="96" width="32" height="32"/>
  <object id="82" gid="65" x="352" y="168" width="32" height="32"/>
  <object id="83" gid="49" x="352" y="152" width="32" height="32"/>
  <object id="84" gid="49" x="352" y="192" width="32" height="32"/>
  <object id="85" gid="49" x="352" y="216" width="32" height="32"/>
  <object id="86" gid="49" x="352" y="248" width="32" height="32"/>
  <object id="87" gid="65" x="352" y="232" width="32" height="32"/>
  <object id="88" gid="69" x="120" y="112" width="32" height="32"/>
  <object id="89" gid="72" x="328" y="320" width="32" height="32"/>
  <object id="90" gid="72" x="248" y="320" width="32" height="32"/>
  <object id="92" gid="69" x="248" y="304" width="32" height="32"/>
  <object id="93" gid="69" x="328" y="304" width="32" height="32"/>
  <object id="101" gid="68" x="24" y="224" width="32" height="32"/>
  <object id="102" gid="68" x="24" y="192" width="32" height="32"/>
  <object id="104" gid="6" x="64" y="320" width="32" height="32"/>
  <object id="106" gid="6" x="96" y="320" width="32" height="32"/>
  <object id="108" gid="6" x="128" y="320" width="32" height="32"/>
  <object id="109" gid="6" x="160" y="320" width="32" height="32"/>
  <object id="110" gid="6" x="192" y="320" width="32" height="32"/>
  <object id="111" gid="6" x="224" y="320" width="32" height="32"/>
  <object id="112" gid="6" x="352" y="320" width="32" height="32"/>
  <object id="113" gid="6" x="384" y="320" width="32" height="32"/>
  <object id="120" gid="8" x="32" y="320" width="32" height="32"/>
  <object id="121" gid="2147483656" x="416" y="320" width="32" height="32"/>
  <object id="122" gid="21" x="256" y="336" width="32" height="32"/>
  <object id="123" gid="2147483669" x="320" y="336" width="32" height="32"/>
 </objectgroup>
</map>
