<?xml version="1.0" encoding="UTF-8"?>
<map version="1.10" tiledversion="1.11.2" orientation="orthogonal" renderorder="right-down" width="15" height="10" tilewidth="32" tileheight="32" infinite="0" nextlayerid="18" nextobjectid="615">
 <properties>
  <property name="music" value="L2_MUSIC"/>
 </properties>
 <tileset firstgid="1" source="Interior.tsx"/>
 <tileset firstgid="257" source="Player.tsx"/>
 <tileset firstgid="275" source="Chef.tsx"/>
 <layer id="9" name="floor" width="15" height="10">
  <data encoding="csv">
0,189,0,0,0,0,0,0,0,0,0,0,0,0,0,
0,205,0,0,0,0,0,0,0,0,0,0,0,0,0,
0,200,200,200,200,200,200,200,200,200,200,200,200,200,0,
0,200,200,200,200,200,200,200,200,200,200,200,200,200,0,
0,200,200,200,200,200,200,200,200,200,200,200,200,200,0,
0,200,200,200,200,200,200,200,200,200,200,200,200,200,0,
0,200,200,200,200,200,200,200,200,200,200,200,200,200,0,
0,200,200,200,200,200,200,200,200,200,200,200,200,200,0,
0,200,200,200,200,200,200,200,200,200,200,200,200,200,0,
0,200,200,200,200,200,200,200,200,200,200,200,200,200,0
</data>
 </layer>
 <layer id="12" name="wall" width="15" height="10">
  <data encoding="csv">
2147483826,182,182,182,189,189,189,191,191,182,182,182,182,182,178,
2147483826,198,198,198,205,205,205,207,207,198,198,198,198,198,178,
2147483826,0,0,0,0,0,0,0,0,0,0,0,0,0,178,
2147483826,0,0,0,0,0,0,0,0,0,0,0,0,0,178,
2147483826,0,0,0,0,0,0,0,0,0,0,0,0,0,178,
2147483826,0,0,0,0,0,0,0,0,0,0,0,0,0,178,
2147483826,0,0,0,0,0,0,0,0,0,0,0,0,0,178,
2147483826,0,0,0,0,0,0,0,0,0,0,0,0,0,178,
2147483826,0,0,0,0,0,0,0,0,0,0,0,0,0,178,
2147483826,0,0,0,0,0,0,0,0,0,0,0,0,0,178
</data>
 </layer>
 <objectgroup id="17" name="small-objects">
  <properties>
   <property name="foreground" type="bool" value="true"/>
  </properties>
  <object id="423" gid="54" x="55.8225" y="49.4058" width="32" height="32"/>
  <object id="424" gid="53" x="72.5254" y="48.5707" width="32" height="32"/>
  <object id="425" gid="52" x="31.1857" y="55.6694" width="32" height="32"/>
  <object id="426" gid="36" x="95.492" y="56.087" width="32" height="32"/>
  <object id="427" gid="69" x="91.2457" y="78.5535" width="32" height="32"/>
  <object id="428" gid="69" x="280.894" y="78.6359" width="32" height="32"/>
  <object id="429" gid="73" x="159.3" y="45.0617" width="32" height="32"/>
  <object id="430" gid="73" x="189.53" y="44.3107" width="32" height="32"/>
  <object id="431" gid="73" x="218.676" y="43.9774" width="32" height="32"/>
  <object id="432" gid="73" x="245.818" y="43.9774" width="32" height="32"/>
  <object id="433" gid="73" x="256.675" y="44.395" width="32" height="32"/>
  <object id="434" gid="57" x="95.48" y="42.4792" width="32" height="32"/>
  <object id="435" gid="57" x="288.411" y="43.9774" width="32" height="32"/>
  <object id="436" gid="41" x="320.146" y="55.6694" width="32" height="32"/>
  <object id="437" gid="56" x="351.464" y="59.8452" width="32" height="32"/>
  <object id="526" gid="72" x="24" y="78.5" width="32" height="32"/>
  <object id="528" gid="72" x="23" y="304" width="32" height="32"/>
  <object id="529" gid="72" x="424" y="305" width="32" height="32"/>
  <object id="539" gid="68" x="23.5" y="95.5" width="32" height="32"/>
  <object id="540" gid="68" x="41" y="303.5" width="32" height="32"/>
  <object id="541" gid="68" x="409" y="304.5" width="32" height="32"/>
  <object id="542" gid="68" x="408" y="78" width="32" height="32"/>
  <object id="489" gid="30" x="288" y="224" width="32" height="32"/>
  <object id="490" gid="32" x="384" y="224" width="32" height="32"/>
  <object id="491" gid="31" x="320" y="224" width="32" height="32"/>
  <object id="499" gid="31" x="352" y="224" width="32" height="32"/>
  <object id="500" gid="62" x="288" y="256" width="32" height="32"/>
  <object id="501" gid="64" x="384" y="256" width="32" height="32"/>
  <object id="502" gid="63" x="320" y="256" width="32" height="32"/>
  <object id="503" gid="63" x="352" y="256" width="32" height="32"/>
  <object id="609" gid="73" x="128.333" y="44.3333" width="32" height="32"/>
 </objectgroup>
 <objectgroup id="14" name="objects">
  <object id="561" name="Player" gid="257" x="192" y="208" width="32" height="32">
   <properties>
    <property name="animationSpeed" type="float" value="2"/>
    <property name="camFollow" type="bool" value="true"/>
    <property name="controller" type="bool" value="true"/>
    <property name="friction" type="float" value="1"/>
    <property name="speed" type="float" value="4"/>
   </properties>
  </object>
  <object id="474" type="Prop" gid="170" x="288" y="96" width="32" height="32"/>
  <object id="475" type="Prop" gid="186" x="288" y="128" width="32" height="32"/>
  <object id="476" type="Prop" gid="202" x="288" y="160" width="32" height="32"/>
  <object id="477" type="Prop" gid="203" x="320" y="160" width="32" height="32"/>
  <object id="478" name="buzzer_table" type="Prop" gid="204" x="352" y="160" width="32" height="32"/>
  <object id="480" type="Prop" gid="203" x="320" y="96" width="32" height="32"/>
  <object id="481" type="Prop" gid="171" x="352" y="96" width="32" height="32"/>
  <object id="482" type="Prop" gid="86" x="375.683" y="95.3388" width="32" height="32"/>
  <object id="483" type="Prop" gid="72" x="424.122" y="77.8008" width="32" height="32"/>
  <object id="484" type="Prop" gid="87" x="416" y="64" width="32" height="32"/>
  <object id="485" type="Prop" gid="88" x="384" y="64" width="32" height="32"/>
  <object id="488" type="Prop" gid="70" x="391.969" y="96.174" width="32" height="32"/>
  <object id="591" name="seat" gid="185" x="88.3636" y="288" width="32" height="32">
   <properties>
    <property name="seatIndex" type="int" value="0"/>
   </properties>
  </object>
  <object id="592" name="seat" gid="185" x="88.3636" y="256" width="32" height="32">
   <properties>
    <property name="seatIndex" type="int" value="1"/>
   </properties>
  </object>
  <object id="593" name="table" gid="201" x="88" y="275.272" width="32" height="32"/>
  <object id="594" name="seat" gid="185" x="160.727" y="286.542" width="32" height="32">
   <properties>
    <property name="seatIndex" type="int" value="3"/>
    <property name="tableId" type="int" value="1"/>
   </properties>
  </object>
  <object id="595" name="seat" gid="185" x="160.727" y="254.667" width="32" height="32">
   <properties>
    <property name="seatIndex" type="int" value="2"/>
    <property name="tableId" type="int" value="1"/>
   </properties>
  </object>
  <object id="596" name="table" gid="201" x="160.364" y="273.94" width="32" height="32">
   <properties>
    <property name="tableId" type="int" value="1"/>
   </properties>
  </object>
  <object id="597" name="seat" gid="185" x="224.852" y="286.667" width="32" height="30.667">
   <properties>
    <property name="seatIndex" type="int" value="4"/>
    <property name="tableId" type="int" value="2"/>
   </properties>
  </object>
  <object id="598" name="seat" gid="185" x="224" y="256" width="32" height="32">
   <properties>
    <property name="seatIndex" type="int" value="5"/>
    <property name="tableId" type="int" value="2"/>
   </properties>
  </object>
  <object id="599" name="table" gid="201" x="224.489" y="273.69" width="32" height="32">
   <properties>
    <property name="tableId" type="int" value="2"/>
   </properties>
  </object>
  <object id="600" name="seat" gid="185" x="88.3636" y="192" width="32" height="32">
   <properties>
    <property name="seatIndex" type="int" value="11"/>
    <property name="tableId" type="int" value="3"/>
   </properties>
  </object>
  <object id="601" name="seat" gid="185" x="88.3636" y="160" width="32" height="32">
   <properties>
    <property name="seatIndex" type="int" value="10"/>
    <property name="tableId" type="int" value="3"/>
   </properties>
  </object>
  <object id="602" name="table" gid="201" x="88" y="179.273" width="32" height="32">
   <properties>
    <property name="tableId" type="int" value="3"/>
   </properties>
  </object>
  <object id="603" name="seat" gid="185" x="160.728" y="190.667" width="32" height="32">
   <properties>
    <property name="seatIndex" type="int" value="8"/>
    <property name="tableId" type="int" value="4"/>
   </properties>
  </object>
  <object id="604" name="seat" gid="185" x="160.728" y="158.667" width="32" height="32">
   <properties>
    <property name="seatIndex" type="int" value="9"/>
    <property name="tableId" type="int" value="4"/>
   </properties>
  </object>
  <object id="605" name="table" gid="201" x="160.364" y="177.94" width="32" height="32">
   <properties>
    <property name="tableId" type="int" value="4"/>
   </properties>
  </object>
  <object id="606" name="seat" gid="185" x="224.728" y="190.667" width="32" height="32">
   <properties>
    <property name="seatIndex" type="int" value="6"/>
    <property name="tableId" type="int" value="5"/>
   </properties>
  </object>
  <object id="607" name="seat" gid="185" x="224.728" y="158.667" width="32" height="32">
   <properties>
    <property name="seatIndex" type="int" value="7"/>
    <property name="tableId" type="int" value="5"/>
   </properties>
  </object>
  <object id="608" name="table" gid="201" x="224.364" y="177.94" width="32" height="32">
   <properties>
    <property name="tableId" type="int" value="5"/>
   </properties>
  </object>
  <object id="544" name="chef_spawn" x="360.727" y="106.545">
   <point/>
  </object>
  <object id="545" name="customer_spawn" x="136" y="80">
   <point/>
  </object>
  <object id="546" name="customer_spawn" x="184" y="80">
   <point/>
  </object>
  <object id="547" name="customer_spawn" x="232" y="80">
   <point/>
  </object>
  <object id="555" name="belt_spawn" x="394.182" y="210.182">
   <point/>
  </object>
  <object id="556" name="belt_waypoint" x="303.375" y="206.563">
   <properties>
    <property name="sequence" type="int" value="0"/>
   </properties>
   <point/>
  </object>
  <object id="557" name="belt_waypoint" x="304" y="239.813">
   <properties>
    <property name="sequence" type="int" value="1"/>
   </properties>
   <point/>
  </object>
  <object id="558" name="belt_waypoint" x="392.125" y="240.125">
   <properties>
    <property name="sequence" type="int" value="2"/>
   </properties>
   <point/>
  </object>
  <object id="559" name="belt_waypoint" x="393.091" y="209.455">
   <properties>
    <property name="sequence" type="int" value="3"/>
   </properties>
   <point/>
  </object>
  <object id="614" name="customer_spawn" x="264" y="80">
   <point/>
  </object>
 </objectgroup>
 <objectgroup id="13" name="wall-object">
  <properties>
   <property name="foreground" type="bool" value="true"/>
  </properties>
  <object id="405" gid="179" x="32" y="320" width="32" height="32">
   <properties>
    <property name="z" type="int" value="4"/>
   </properties>
  </object>
  <object id="406" gid="179" x="64" y="320" width="32" height="32">
   <properties>
    <property name="z" type="int" value="4"/>
   </properties>
  </object>
  <object id="407" gid="179" x="96" y="320" width="32" height="32">
   <properties>
    <property name="z" type="int" value="4"/>
   </properties>
  </object>
  <object id="408" gid="179" x="128" y="320" width="32" height="32">
   <properties>
    <property name="z" type="int" value="4"/>
   </properties>
  </object>
  <object id="409" gid="179" x="160" y="320" width="32" height="32">
   <properties>
    <property name="z" type="int" value="4"/>
   </properties>
  </object>
  <object id="410" gid="179" x="192" y="320" width="32" height="32">
   <properties>
    <property name="z" type="int" value="4"/>
   </properties>
  </object>
  <object id="411" gid="179" x="224" y="320" width="32" height="32">
   <properties>
    <property name="z" type="int" value="4"/>
   </properties>
  </object>
  <object id="412" gid="179" x="256" y="320" width="32" height="32">
   <properties>
    <property name="z" type="int" value="4"/>
   </properties>
  </object>
  <object id="413" gid="179" x="288" y="320" width="32" height="32">
   <properties>
    <property name="z" type="int" value="4"/>
   </properties>
  </object>
  <object id="414" gid="179" x="320" y="320" width="32" height="32">
   <properties>
    <property name="z" type="int" value="4"/>
   </properties>
  </object>
  <object id="416" gid="179" x="352" y="320" width="32" height="32">
   <properties>
    <property name="z" type="int" value="4"/>
   </properties>
  </object>
  <object id="417" gid="179" x="384" y="320" width="32" height="32">
   <properties>
    <property name="z" type="int" value="4"/>
   </properties>
  </object>
  <object id="418" gid="179" x="416" y="320" width="32" height="32">
   <properties>
    <property name="z" type="int" value="4"/>
   </properties>
  </object>
 </objectgroup>
</map>
