<?xml version="1.0" encoding="UTF-8"?>
<map version="1.10" tiledversion="1.11.2" orientation="orthogonal" renderorder="right-down" width="15" height="10" tilewidth="32" tileheight="32" infinite="0" nextlayerid="14" nextobjectid="422">
 <properties>
  <property name="music" value="L3_MUSIC"/>
 </properties>
 <tileset firstgid="1" source="Interior.tsx"/>
 <tileset firstgid="257" source="Player.tsx"/>
 <tileset firstgid="275" source="Chef.tsx"/>
 <layer id="12" name="floor" width="15" height="10">
  <data encoding="csv">
0,230,230,230,230,230,230,230,230,230,230,230,230,230,0,
0,246,246,246,246,246,246,246,246,246,246,246,246,246,0,
0,248,248,248,248,248,248,248,248,248,248,248,248,248,0,
0,248,248,248,248,248,248,248,248,248,248,248,248,248,0,
0,248,248,248,248,248,248,248,248,248,248,248,248,248,0,
0,248,248,248,248,248,248,248,248,248,248,248,248,248,0,
0,248,248,248,248,248,248,248,248,248,248,248,248,248,0,
0,248,248,248,248,248,248,248,248,248,248,248,248,248,0,
0,248,248,248,248,248,248,248,248,248,248,248,248,248,0,
0,248,248,248,248,248,248,248,248,248,248,248,248,248,0
</data>
 </layer>
 <layer id="11" name="wall" width="15" height="10">
  <data encoding="csv">
2147483874,0,0,0,0,0,0,0,0,0,0,0,0,0,226,
2147483874,0,0,0,0,0,0,0,0,0,0,0,0,0,226,
2147483874,0,0,0,0,0,0,0,0,0,0,0,0,0,226,
2147483874,0,0,0,0,0,0,0,0,0,0,0,0,0,226,
2147483874,0,0,0,0,0,0,0,0,0,0,0,0,0,226,
2147483874,0,0,0,0,0,0,0,0,0,0,0,0,0,226,
2147483874,0,0,0,0,0,0,0,0,0,0,0,0,0,226,
2147483874,0,0,0,0,0,0,0,0,0,0,0,0,0,226,
2147483874,0,0,0,0,0,0,0,0,0,0,0,0,0,226,
2147483874,0,0,0,0,0,0,0,0,0,0,0,0,0,226
</data>
 </layer>
 <objectgroup id="13" name="wall-object">
  <object id="405" gid="227" x="416" y="320" width="32" height="32"/>
  <object id="407" gid="227" x="384" y="320" width="32" height="32"/>
  <object id="408" gid="227" x="352" y="320" width="32" height="32"/>
  <object id="409" gid="227" x="320" y="320" width="32" height="32"/>
  <object id="411" gid="227" x="288" y="320" width="32" height="32"/>
  <object id="413" gid="227" x="256" y="320" width="32" height="32"/>
  <object id="414" gid="227" x="224" y="320" width="32" height="32"/>
  <object id="415" gid="227" x="192" y="320" width="32" height="32"/>
  <object id="416" gid="227" x="160" y="320" width="32" height="32"/>
  <object id="417" gid="227" x="128" y="320" width="32" height="32"/>
  <object id="418" gid="227" x="96" y="320" width="32" height="32"/>
  <object id="419" gid="227" x="64" y="320" width="32" height="32"/>
  <object id="420" gid="227" x="32" y="320" width="32" height="32"/>
  <object id="421" gid="227" x="32" y="320" width="32" height="32"/>
 </objectgroup>
</map>
